static/cards/FrenchDeck/default/card_diamonds_02.svg

<svg width="219" height="304" viewBox="0 0 219 304" fill="none" xmlns="http://www.w3.org/2000/svg">
<g filter="url(#filter0_d_18_670)">
<g clip-path="url(#clip0_18_670)">
<rect x="8" y="4" width="203" height="288" rx="10" fill="white"/>
<path d="M17.2319 42.1382C17.2319 41.4175 17.5723 40.8569 18.7534 39.5156L27.0815 29.9863C29.3438 27.4038 30.2046 25.7222 30.2046 23.8403C30.2046 21.0176 28.1826 19.1357 25.1396 19.1357C22.5571 19.1357 20.6553 20.6772 20.0547 23.2798C19.7744 24.3408 19.2139 24.8813 18.3931 24.8813C17.4121 24.8813 16.7715 24.1406 16.7715 23.0596C16.7715 19.6562 20.0747 16.0928 25.3599 16.0928C30.2847 16.0928 33.748 19.2158 33.748 23.6201C33.748 26.2227 32.7271 28.1245 29.1235 32.2285L21.7163 40.6968V40.937H32.8271C33.8882 40.937 34.5688 41.5176 34.5688 42.4785C34.5688 43.4194 33.9282 44 32.8271 44H19.6143C18.1528 44 17.2319 43.2993 17.2319 42.1382Z" fill="#BC1E24"/>
<path d="M26.1801 52.104C26.1038 51.9653 25.8962 51.9653 25.8199 52.104C23.5263 56.2724 21.8722 58.4782 18.5553 61.8648C18.4816 61.9401 18.4816 62.0599 18.5553 62.1352C21.8722 65.5218 23.5263 67.7276 25.8199 71.896C25.8962 72.0347 26.1038 72.0347 26.1801 71.896C28.4737 67.7276 30.1278 65.5218 33.4447 62.1352C33.5184 62.0599 33.5184 61.9401 33.4447 61.8648C30.1278 58.4782 28.4737 56.2724 26.1801 52.104Z" fill="#BC1E24"/>
<path d="M201.768 253.862C201.768 254.583 201.428 255.143 200.247 256.484L191.918 266.014C189.656 268.596 188.795 270.278 188.795 272.16C188.795 274.982 190.817 276.864 193.86 276.864C196.443 276.864 198.345 275.323 198.945 272.72C199.226 271.659 199.786 271.119 200.607 271.119C201.588 271.119 202.229 271.859 202.229 272.94C202.229 276.344 198.925 279.907 193.64 279.907C188.715 279.907 185.252 276.784 185.252 272.38C185.252 269.777 186.273 267.875 189.876 263.771L197.284 255.303L197.284 255.063L186.173 255.063C185.112 255.063 184.431 254.482 184.431 253.521C184.431 252.581 185.072 252 186.173 252L199.386 252C200.847 252 201.768 252.701 201.768 253.862Z" fill="#BC1E24"/>
<path d="M192.82 243.896C192.896 244.035 193.104 244.035 193.18 243.896C195.474 239.728 197.128 237.522 200.445 234.135C200.518 234.06 200.518 233.94 200.445 233.865C197.128 230.478 195.474 228.272 193.18 224.104C193.104 223.965 192.896 223.965 192.82 224.104C190.526 228.272 188.872 230.478 185.555 233.865C185.482 233.94 185.482 234.06 185.555 234.135C188.872 237.522 190.526 239.728 192.82 243.896Z" fill="#BC1E24"/>
<path d="M109.95 27.2599C109.759 26.9134 109.241 26.9134 109.05 27.2599C103.316 37.6809 99.1805 43.1955 90.8882 51.6621C90.7039 51.8503 90.7039 52.1498 90.8882 52.338C99.1805 60.8045 103.316 66.3191 109.05 76.7401C109.241 77.0866 109.759 77.0866 109.95 76.7401C115.684 66.3191 119.819 60.8045 128.112 52.338C128.296 52.1498 128.296 51.8503 128.112 51.6621C119.819 43.1955 115.684 37.6809 109.95 27.2599Z" fill="#BC1E24"/>
<path d="M109.95 219.26C109.759 218.913 109.241 218.913 109.05 219.26C103.316 229.681 99.1805 235.196 90.8882 243.662C90.7039 243.85 90.7039 244.15 90.8882 244.338C99.1805 252.804 103.316 258.319 109.05 268.74C109.241 269.087 109.759 269.087 109.95 268.74C115.684 258.319 119.819 252.804 128.112 244.338C128.296 244.15 128.296 243.85 128.112 243.662C119.819 235.196 115.684 229.681 109.95 219.26Z" fill="#BC1E24"/>
</g>
</g>
<defs>
<filter id="filter0_d_18_670" x="0" y="0" width="219" height="304" filterUnits="userSpaceOnUse" color-interpolation-filters="sRGB">
<feFlood flood-opacity="0" result="BackgroundImageFix"/>
<feColorMatrix in="SourceAlpha" type="matrix" values="0 0 0 0 0 0 0 0 0 0 0 0 0 0 0 0 0 0 127 0" result="hardAlpha"/>
<feOffset dy="4"/>
<feGaussianBlur stdDeviation="4"/>
<feComposite in2="hardAlpha" operator="out"/>
<feColorMatrix type="matrix" values="0 0 0 0 0.614771 0 0 0 0 0.70094 0 0 0 0 0.806257 0 0 0 1 0"/>
<feBlend mode="normal" in2="BackgroundImageFix" result="effect1_dropShadow_18_670"/>
<feBlend mode="normal" in="SourceGraphic" in2="effect1_dropShadow_18_670" result="shape"/>
</filter>
<clipPath id="clip0_18_670">
<rect x="8" y="4" width="203" height="288" rx="10" fill="white"/>
</clipPath>
</defs>
</svg>

<svg xmlns="http://www.w3.org/2000/svg" width="219" height="304" fill="none" viewBox="0 0 219 304"><g filter="url(#a)"><g clip-path="url(#b)"><rect width="203" height="288" x="8" y="4" fill="#fff" rx="10"/><path fill="#bc1e24" d="M17.232 42.138c0-.72.34-1.281 1.521-2.622l8.328-9.53c2.263-2.582 3.124-4.264 3.124-6.146 0-2.822-2.022-4.704-5.065-4.704-2.583 0-4.485 1.541-5.085 4.144-.28 1.06-.841 1.601-1.662 1.601-.98 0-1.622-.74-1.622-1.821 0-3.404 3.304-6.967 8.589-6.967 4.925 0 8.388 3.123 8.388 7.527 0 2.603-1.02 4.505-4.624 8.608l-7.408 8.469v.24h11.111c1.061 0 1.742.58 1.742 1.541 0 .941-.64 1.522-1.742 1.522H19.614c-1.461 0-2.382-.7-2.382-1.862M26.18 52.104a.208.208 0 0 0-.36 0c-2.294 4.168-3.948 6.374-7.265 9.76a.193.193 0 0 0 0 .271c3.317 3.387 4.971 5.593 7.265 9.761a.208.208 0 0 0 .36 0c2.294-4.168 3.948-6.374 7.265-9.76a.193.193 0 0 0 0-.271c-3.317-3.387-4.971-5.593-7.265-9.761M201.768 253.862c0 .721-.34 1.281-1.521 2.622l-8.329 9.53c-2.262 2.582-3.123 4.264-3.123 6.146 0 2.822 2.022 4.704 5.065 4.704 2.583 0 4.485-1.541 5.085-4.144.281-1.061.841-1.601 1.662-1.601.981 0 1.622.74 1.622 1.821 0 3.404-3.304 6.967-8.589 6.967-4.925 0-8.388-3.123-8.388-7.527 0-2.603 1.021-4.505 4.624-8.609l7.408-8.468v-.24h-11.111c-1.061 0-1.742-.581-1.742-1.542 0-.94.641-1.521 1.742-1.521h13.213c1.461 0 2.382.701 2.382 1.862M192.82 243.896a.208.208 0 0 0 .36 0c2.294-4.168 3.948-6.374 7.265-9.761a.194.194 0 0 0 0-.27c-3.317-3.387-4.971-5.593-7.265-9.761a.208.208 0 0 0-.36 0c-2.294 4.168-3.948 6.374-7.265 9.761a.194.194 0 0 0 0 .27c3.317 3.387 4.971 5.593 7.265 9.761M109.95 27.26a.52.52 0 0 0-.9 0c-5.734 10.42-9.87 15.936-18.162 24.402a.48.48 0 0 0 0 .676c8.292 8.466 12.428 13.981 18.162 24.402a.52.52 0 0 0 .9 0c5.734-10.42 9.869-15.935 18.162-24.402a.483.483 0 0 0 0-.676c-8.293-8.466-12.428-13.981-18.162-24.402M109.95 219.26a.52.52 0 0 0-.9 0c-5.734 10.421-9.87 15.936-18.162 24.402a.48.48 0 0 0 0 .676c8.292 8.466 12.428 13.981 18.162 24.402a.52.52 0 0 0 .9 0c5.734-10.421 9.869-15.936 18.162-24.402a.483.483 0 0 0 0-.676c-8.293-8.466-12.428-13.981-18.162-24.402"/></g></g><defs><clipPath id="b"><rect width="203" height="288" x="8" y="4" fill="#fff" rx="10"/></clipPath><filter id="a" width="219" height="304" x="0" y="0" color-interpolation-filters="sRGB" filterUnits="userSpaceOnUse"><feFlood flood-opacity="0" result="BackgroundImageFix"/><feColorMatrix in="SourceAlpha" result="hardAlpha" values="0 0 0 0 0 0 0 0 0 0 0 0 0 0 0 0 0 0 127 0"/><feOffset dy="4"/><feGaussianBlur stdDeviation="4"/><feComposite in2="hardAlpha" operator="out"/><feColorMatrix values="0 0 0 0 0.614771 0 0 0 0 0.70094 0 0 0 0 0.806257 0 0 0 1 0"/><feBlend in2="BackgroundImageFix" result="effect1_dropShadow_18_670"/><feBlend in="SourceGraphic" in2="effect1_dropShadow_18_670" result="shape"/></filter></defs></svg>
